X: 2446
T: Ballinlea, The
R: polka
M: 2/4
K: Gmajor
e2 ce|dB G>D|G>A Bd|BA AB/d/|
ef/e/ ce|dB GD|B/c/d ef|1 g2 fg:|2 g2 d>c||
BG GA/B/|AD D2|BG B/c/d|e/f/g d>c|
BG GA/B/|AD D2|B/c/d cA|1 G2 d>c:|2 G2 G2||

